images/big-cross-close.svg

<svg width="26" height="26" fill="none" xmlns="http://www.w3.org/2000/svg"><path d="m26 3-3-3-10 10L3 0 0 3l10 10L0 23l3 3 10-10 10 10 3-3-10-10L26 3Z" fill="#000"/></svg>

<svg width="26" height="26" viewBox="0 0 26 26" fill="none" xmlns="http://www.w3.org/2000/svg">
<path d="M26 3L23 0L13 10L3 0L0 3L10 13L0 23L3 26L13 16L23 26L26 23L16 13L26 3Z" fill="black"/>
</svg>
